X: 26716
T: Mike Kent's
R: polka
M: 2/4
K: Gmajor
|:[M:2/4] F2 AB|cc Bc|dA AG|FA- AG|
FG AB|cd BG|[M:3/4] FA G2 G2:|
|:[M:2/4] Bd- de|fg fe|[M:3/4] dB FA- AA|[M:2/4] G/F/G A2|
Bd- de|fg fe|dB FG|AF D2:|
|:FA- AA|G/F/G Ac|BG AG|DG- G2|
FA- AA|G/F/G Ac|BG AG|D2 D2:|

